dist/images/icons/tag-disp.svg

<svg width="46" height="42" viewBox="0 0 46 42" fill="none" xmlns="http://www.w3.org/2000/svg">
<path d="M42.4719 0.607788H3.52812C1.78437 0.607788 0.379684 2.20623 0.379684 4.14373V30.6875C0.379684 32.625 1.78437 34.2234 3.52812 34.2234H17.8656L17.3812 39.7453H14.1359C13.6516 39.7453 13.2641 40.1328 13.2641 40.6172C13.2641 41.1015 13.6516 41.489 14.1359 41.489H31.9125C32.3969 41.489 32.7844 41.1015 32.7844 40.6172C32.7844 40.1328 32.3969 39.7453 31.9125 39.7453H28.6672L28.1828 34.2234H42.5203C44.2641 34.2234 45.6687 32.625 45.6687 30.6875V4.09529C45.6687 2.15779 44.2156 0.607788 42.4719 0.607788V0.607788ZM3.52812 2.3031H42.4719C43.2953 2.3031 43.925 3.12654 43.925 4.14373V4.19216H2.075V4.14373C2.075 3.0781 2.70468 2.3031 3.52812 2.3031ZM2.075 5.88748H43.9734V27.4906H2.075V5.88748ZM26.9234 39.6968H19.0766L19.5609 34.175H26.4391L26.9234 39.6968ZM42.4719 32.4797H27.2141H18.7859H3.52812C2.70468 32.4797 2.075 31.6562 2.075 30.639V29.089H43.9734V30.6875C43.9734 31.6562 43.2953 32.4797 42.4719 32.4797Z" fill="#fff"/>
<path d="M33.9953 16.8344L28.3281 14.025C27.8922 13.8312 27.4078 13.9766 27.2141 14.4125C27.0203 14.8484 27.1656 15.3328 27.6016 15.5266L31.7187 17.6094L27.5531 19.6437C27.1172 19.8375 26.9719 20.3703 27.1656 20.7578C27.3109 21.0484 27.6016 21.2422 27.9406 21.2422C28.0859 21.2422 28.1828 21.1937 28.3281 21.1453L33.9953 18.3359C34.2859 18.1906 34.4797 17.9 34.4797 17.5609C34.4797 17.2219 34.2859 16.9797 33.9953 16.8344Z" fill="#fff"/>
<path d="M18.8344 14.4125C18.6406 13.9766 18.1078 13.8312 17.7203 14.025L12.0531 16.8344C11.7625 16.9797 11.5688 17.2703 11.5688 17.6094C11.5688 17.9484 11.7625 18.2391 12.0531 18.3844L17.6719 21.1937C17.8172 21.2422 17.9141 21.2906 18.0594 21.2906C18.35 21.2906 18.6891 21.0969 18.8344 20.8062C19.0281 20.3703 18.8828 19.8859 18.4469 19.6922L14.2813 17.6094L18.4469 15.575C18.8828 15.3328 19.0281 14.8484 18.8344 14.4125V14.4125Z" fill="#fff"/>
<path d="M25.4219 11.9906C24.9859 11.7969 24.5016 11.9906 24.3078 12.4266L20.0937 22.4047C19.9 22.8406 20.0938 23.325 20.5297 23.5188C20.6266 23.5672 20.7719 23.5672 20.8687 23.5672C21.2078 23.5672 21.4984 23.3734 21.6437 23.0344L25.9062 13.1047C26.0516 12.6688 25.8578 12.1359 25.4219 11.9906V11.9906Z" fill="#fff"/>
</svg>

<svg width="46" height="42" fill="none" xmlns="http://www.w3.org/2000/svg"><path d="M42.472.608H3.528C1.784.608.38 2.206.38 4.144v26.544c0 1.937 1.404 3.535 3.148 3.535h14.338l-.485 5.522h-3.245a.868.868 0 00-.872.872c0 .485.388.872.872.872h17.777a.868.868 0 00.871-.872.868.868 0 00-.871-.872h-3.246l-.484-5.522H42.52c1.744 0 3.149-1.598 3.149-3.535V4.095c0-1.937-1.453-3.487-3.197-3.487zM3.528 2.303h38.944c.823 0 1.453.824 1.453 1.84v.05H2.075v-.05c0-1.065.63-1.84 1.453-1.84zM2.075 5.887h41.898v21.604H2.075V5.887zm24.848 33.81h-7.846l.484-5.522h6.878l.484 5.522zm15.549-7.217H3.528c-.823 0-1.453-.824-1.453-1.841v-1.55h41.898v1.599c0 .968-.678 1.792-1.501 1.792z" fill="#fff"/><path d="M33.995 16.834l-5.667-2.809c-.436-.194-.92-.048-1.114.387-.194.436-.048.92.388 1.115l4.117 2.082-4.166 2.035c-.436.194-.581.726-.387 1.114.145.29.436.484.775.484.145 0 .242-.048.387-.097l5.667-2.81a.863.863 0 00.485-.774c0-.34-.194-.581-.485-.727zm-15.161-2.422c-.193-.435-.726-.58-1.114-.387l-5.667 2.81a.863.863 0 000 1.55l5.619 2.809c.145.048.242.097.387.097a.92.92 0 00.775-.485c.194-.436.049-.92-.387-1.114L14.28 17.61l4.166-2.034a.883.883 0 00.387-1.162zm6.588-2.422a.834.834 0 00-1.114.437l-4.214 9.978c-.194.436 0 .92.436 1.114.097.048.242.048.339.048.339 0 .63-.194.775-.533l4.262-9.93c.146-.435-.048-.968-.484-1.113z" fill="#fff"/></svg>
